; generated by Slic3r 1.3.1-dev on 2018-09-03 at 09:29:04

; external perimeters extrusion width = 0.55mm (4.37mm^3/s)
; perimeters extrusion width = 0.70mm (11.44mm^3/s)
; infill extrusion width = 0.62mm (13.45mm^3/s)
; solid infill extrusion width = 0.70mm (3.81mm^3/s)
; top infill extrusion width = 0.70mm (2.86mm^3/s)

M107
M104 S200 ; set temperature
G28 ; home all axes
G1 Z5 F5000 ; lift nozzle

; Filament gcode

M109 S200 ; set temperature and wait for it to be reached
G21 ; set units to millimeters
G90 ; use absolute coordinates
M82 ; use absolute distances for extrusion
G92 E0
G92 E0
G1 Z0.350 F7800.000
G1 E-2.00000 F2400.00000
G92 E0
G1 X94.315 Y92.815 F7800.000
G1 E2.00000 F2400.00000
G1 F900.915
G1 X96.193 Y91.499 E2.07096
G1 X99.000 Y90.875 E2.15992
G1 X100.000 Y90.875 E2.19086
G1 X102.095 Y91.215 E2.25653
G1 X105.095 Y92.215 E2.35438
G1 X107.112 Y93.306 E2.42534
G1 X108.637 Y95.019 E2.49630
G1 X109.486 Y97.150 E2.56726
G1 X109.625 Y98.500 E2.60926
G1 X109.625 Y102.500 E2.73302
G1 X109.228 Y104.759 E2.80399
G1 X108.085 Y106.747 E2.87495
G1 X106.332 Y108.226 E2.94591
G1 X104.180 Y109.019 E3.01687
G1 X103.000 Y109.125 E3.05352
G1 X101.000 Y109.125 E3.11541
G1 X98.037 Y108.425 E3.20960
G1 X94.037 Y106.425 E3.34797
G1 X92.194 Y105.060 E3.41893
G1 X90.928 Y103.148 E3.48990
G1 X90.375 Y100.500 E3.57361
G1 X90.375 Y99.500 E3.60455
G1 X90.772 Y97.241 E3.67551
G1 X92.315 Y94.815 E3.76447
G1 X94.262 Y92.869 E3.84966
G1 E1.84966 F2400.00000
G92 E0
G1 X102.025 Y100.525 F7800.000
G1 E2.00000 F2400.00000
G1 F900.915
G1 X99.975 Y100.525 E2.06344
G1 X99.975 Y99.475 E2.09593
G1 X102.025 Y99.475 E2.15937
G1 X102.025 Y100.450 E2.18954
G1 X101.350 Y101.150 F7800.000
G1 F1800
G1 X99.350 Y101.150 E2.25143
G1 X99.350 Y98.850 E2.32259
G1 X102.650 Y98.850 E2.42470
G1 X102.650 Y102.150 E2.52680
G1 X101.350 Y102.150 E2.56703
G1 X101.350 Y101.225 E2.59565
G1 X101.200 Y100.673 F7800.000
G1 E0.59565 F2400.00000
G92 E0
G1 X99.350 Y100.000 F7800.000
G1 E2.00000 F2400.00000
G1 F1800
G1 X97.000 Y100.000 E2.10762
G1 E0.10762 F2400.00000
G92 E0
G1 X100.287 Y100.000 F7800.000
G1 E2.00000 F2400.00000
G1 F900.915
G1 X101.713 Y100.000 E2.02472
G1 Z0.650 F7800.000
G1 X102.164 Y100.664 F7800.000
G1 F600
G1 X99.836 Y100.664 E2.08754
G1 X99.836 Y99.336 E2.12338
G1 X102.164 Y99.336 E2.18621
G1 X102.164 Y100.589 E2.22003
G1 X101.275 Y101.225 F7800.000
G1 F600
G1 X99.275 Y101.225 E2.26125
G1 X99.275 Y100.225 E2.28186
G1 X97.275 Y100.225 E2.32308
G1 X97.275 Y99.775 E2.33235
G1 X99.275 Y99.775 E2.37358
G1 X99.275 Y97.775 E2.41480
G1 X99.725 Y97.775 E2.42407
G1 X99.725 Y98.775 E2.44468
G1 X102.725 Y98.775 E2.50651
G1 X102.725 Y102.225 E2.57762
G1 X101.275 Y102.225 E2.60750
G1 X101.275 Y101.300 E2.62657
G1 X101.117 Y100.751 F7800.000
G1 X101.847 Y100.000 F7800.000
G1 F600
G1 X100.153 Y100.000 E2.67175
G1 Z0.950 F7800.000
G1 X102.164 Y100.664 F7800.000
G1 F600
G1 X99.836 Y100.664 E2.73457
G1 X99.836 Y99.336 E2.77042
G1 X102.164 Y99.336 E2.83324
G1 X102.164 Y100.589 E2.86706
G1 X101.275 Y101.225 F7800.000
G1 F600
G1 X99.275 Y101.225 E2.90828
G1 X99.275 Y100.225 E2.92889
G1 X97.275 Y100.225 E2.97011
G1 X97.275 Y99.775 E2.97939
G1 X99.275 Y99.775 E3.02061
G1 X99.275 Y97.775 E3.06183
G1 X99.725 Y97.775 E3.07110
G1 X99.725 Y98.775 E3.09171
G1 X102.725 Y98.775 E3.15354
G1 X102.725 Y102.225 E3.22465
G1 X101.275 Y102.225 E3.25454
G1 X101.275 Y101.300 E3.27360
G1 X101.117 Y100.751 F7800.000
G1 X101.847 Y100.000 F7800.000
G1 F600
G1 X100.153 Y100.000 E3.31878
M106 S255
G1 Z1.250 F7800.000
G1 X101.529 Y100.029 F7800.000
G1 F600
G1 X99.471 Y100.029 E3.37429
G1 X99.471 Y98.971 E3.40282
G1 X101.529 Y98.971 E3.45832
G1 X101.529 Y99.954 E3.48483
G1 X102.164 Y100.664 F7800.000
G1 F600
G1 X98.836 Y100.664 E3.57462
G1 X98.836 Y98.336 E3.63745
G1 X102.164 Y98.336 E3.72724
G1 X102.164 Y100.589 E3.78804
G1 X101.275 Y101.225 F7800.000
G1 F1800
G1 X98.750 Y101.225 E3.84008
M106 S255

G1 F3600
G1 X98.275 Y101.225 E3.85328
G1 X98.275 Y100.750 E3.86647
M106 S255

G1 F1800
G1 X98.275 Y100.225 E3.87729
G1 X97.275 Y100.225 E3.89790
G1 X97.275 Y99.250 E3.91800
M106 S255

G1 F3600
G1 X97.275 Y98.775 E3.93119
G1 X98.275 Y98.775 E3.95897
G1 X98.275 Y97.775 E3.98675
G1 X98.750 Y97.775 E3.99994
M106 S255

G1 F1800
G1 X100.250 Y97.775 E4.03086
M106 S255

G1 F3600
G1 X102.725 Y97.775 E4.09961
G1 X102.725 Y98.250 E4.11280
M106 S255

G1 F1800
G1 X102.725 Y102.225 E4.19473
G1 X101.725 Y102.225 E4.21534
G1 X101.725 Y102.750 E4.22616
M106 S255

G1 F3600
G1 X101.725 Y103.225 E4.23935
G1 X101.275 Y103.225 E4.25185
G1 X101.275 Y102.750 E4.26505
M106 S255

G1 F1800
G1 X101.275 Y101.300 E4.29493
G1 X100.794 Y101.088 F7800.000
G1 X101.211 Y99.500 F7800.000
G1 F600
G1 X99.789 Y99.500 E4.31651
G1 Z1.550 F7800.000
G1 X101.529 Y100.029 F7800.000
G1 F600
G1 X99.471 Y100.029 E4.37201
G1 X99.471 Y98.971 E4.40054
G1 X101.529 Y98.971 E4.45605
G1 X101.529 Y99.954 E4.48255
G1 X102.164 Y100.664 F7800.000
G1 F600
G1 X98.836 Y100.664 E4.57235
G1 X98.836 Y98.336 E4.63517
G1 X102.164 Y98.336 E4.72497
G1 X102.164 Y100.589 E4.78577
G1 X101.275 Y101.225 F7800.000
G1 F600
G1 X98.275 Y101.225 E4.84760
G1 X98.275 Y100.225 E4.86821
G1 X97.275 Y100.225 E4.88882
G1 X97.275 Y98.775 E4.91871
G1 X98.275 Y98.775 E4.93932
G1 X98.275 Y97.775 E4.95993
G1 X102.725 Y97.775 E5.05164
G1 X102.725 Y102.225 E5.14336
G1 X101.725 Y102.225 E5.16397
G1 X101.725 Y103.225 E5.18458
G1 X101.275 Y103.225 E5.19385
G1 X101.275 Y101.300 E5.23353
G1 X101.238 Y100.726 F7800.000
G1 X101.211 Y99.500 F7800.000
G1 F642.985
G1 X99.789 Y99.500 E5.25511
G1 Z1.850 F7800.000
G1 X101.529 Y100.029 F7800.000
G1 F600
G1 X99.471 Y100.029 E5.31061
G1 X99.471 Y98.971 E5.33914
G1 X101.529 Y98.971 E5.39464
G1 X101.529 Y99.954 E5.42115
G1 X102.164 Y100.664 F7800.000
G1 F600
G1 X98.836 Y100.664 E5.51095
G1 X98.836 Y98.336 E5.57377
G1 X102.164 Y98.336 E5.66357
G1 X102.164 Y100.589 E5.72437
G1 X101.275 Y101.225 F7800.000
G1 F600
G1 X98.275 Y101.225 E5.78620
G1 X98.275 Y100.225 E5.80681
G1 X97.275 Y100.225 E5.82742
G1 X97.275 Y98.775 E5.85730
G1 X98.275 Y98.775 E5.87791
G1 X98.275 Y97.775 E5.89852
G1 X102.725 Y97.775 E5.99024
G1 X102.725 Y102.225 E6.08196
G1 X101.725 Y102.225 E6.10257
G1 X101.725 Y103.225 E6.12318
G1 X101.275 Y103.225 E6.13245
G1 X101.275 Y101.300 E6.17213
G1 X101.238 Y100.726 F7800.000
G1 X101.211 Y99.500 F7800.000
G1 F642.985
G1 X99.789 Y99.500 E6.19370
G1 Z2.150 F7800.000
G1 X101.529 Y100.029 F7800.000
G1 F600
G1 X99.471 Y100.029 E6.24921
G1 X99.471 Y98.971 E6.27773
G1 X101.529 Y98.971 E6.33324
G1 X101.529 Y99.954 E6.35974
G1 X102.164 Y100.664 F7800.000
G1 F600
G1 X98.836 Y100.664 E6.44954
G1 X98.836 Y98.336 E6.51236
G1 X102.164 Y98.336 E6.60216
G1 X102.164 Y100.589 E6.66296
G1 X101.275 Y101.225 F7800.000
G1 F1800
G1 X99.725 Y101.225 E6.69491
G1 X99.725 Y101.750 E6.70573
M106 S255

G1 F3600
G1 X99.725 Y102.225 E6.71892
G1 X99.275 Y102.225 E6.73142
G1 X99.275 Y101.750 E6.74462
M106 S255

G1 F1800
G1 X99.275 Y101.225 E6.75544
G1 X98.275 Y101.225 E6.77605
G1 X98.275 Y100.225 E6.79666
G1 X97.275 Y100.225 E6.81727
G1 X97.275 Y98.775 E6.84715
G1 X98.275 Y98.775 E6.86776
G1 X98.275 Y97.775 E6.88837
G1 X102.725 Y97.775 E6.98009
G1 X102.725 Y102.750 E7.08263
M106 S255

G1 F3600
G1 X102.725 Y103.225 E7.09582
G1 X102.250 Y103.225 E7.10902
M106 S255

G1 F1800
G1 X101.275 Y103.225 E7.12911
G1 X101.275 Y101.300 E7.16879
G1 X101.200 Y100.731 F7800.000
G1 X102.000 Y100.945 F7800.000
G1 F600
G1 X102.000 Y102.945 E7.23881
G1 X101.211 Y99.500 F7800.000
G1 F600
G1 X99.789 Y99.500 E7.26039
G1 Z2.450 F7800.000
G1 X100.529 Y100.029 F7800.000
G1 F600
G1 X99.471 Y100.029 E7.28892
G1 X99.471 Y98.971 E7.31745
G1 X100.529 Y98.971 E7.34597
G1 X100.529 Y99.954 E7.37248
G1 X101.164 Y99.336 F7800.000
G1 F600
G1 X102.164 Y99.336 E7.39946
G1 X102.164 Y100.664 E7.43530
G1 X98.836 Y100.664 E7.52510
G1 X98.836 Y98.336 E7.58792
G1 X101.164 Y98.336 E7.65074
G1 X101.164 Y99.261 E7.67570
G1 X101.725 Y98.775 F7800.000
G1 F600
G1 X102.725 Y98.775 E7.69631
G1 X102.725 Y103.225 E7.78802
G1 X101.275 Y103.225 E7.81791
G1 X101.275 Y101.225 E7.85913
G1 X99.725 Y101.225 E7.89107
G1 X99.725 Y102.225 E7.91168
G1 X99.275 Y102.225 E7.92096
G1 X99.275 Y101.225 E7.94157
G1 X98.275 Y101.225 E7.96218
G1 X98.275 Y100.225 E7.98279
G1 X97.275 Y100.225 E8.00340
G1 X97.275 Y98.775 E8.03329
G1 X98.275 Y98.775 E8.05390
G1 X98.275 Y97.775 E8.07451
G1 X101.725 Y97.775 E8.14561
G1 X101.725 Y98.700 E8.16468
G1 X101.933 Y99.230 F7800.000
G1 X102.000 Y100.945 F7800.000
G1 F649.922
G1 X102.000 Y102.945 E8.23470
G1 Z2.750 F7800.000
G1 X100.529 Y98.971 F7800.000
G1 F600
G1 X100.529 Y100.029 E8.26323
G1 X99.471 Y100.029 E8.29176
G1 X99.471 Y98.971 E8.32029
G1 X100.454 Y98.971 E8.34679
G1 X101.164 Y99.336 F7800.000
G1 F600
G1 X102.164 Y99.336 E8.37377
G1 X102.164 Y100.664 E8.40962
G1 X98.836 Y100.664 E8.49942
G1 X98.836 Y98.336 E8.56224
G1 X101.164 Y98.336 E8.62506
G1 X101.164 Y99.261 E8.65001
G1 X101.725 Y98.775 F7800.000
G1 F600
G1 X102.725 Y98.775 E8.67062
G1 X102.725 Y103.225 E8.76234
G1 X101.275 Y103.225 E8.79222
G1 X101.275 Y101.225 E8.83344
G1 X99.725 Y101.225 E8.86539
G1 X99.725 Y102.225 E8.88600
G1 X99.275 Y102.225 E8.89528
G1 X99.275 Y101.225 E8.91589
G1 X98.275 Y101.225 E8.93650
G1 X98.275 Y100.225 E8.95711
G1 X97.275 Y100.225 E8.97772
G1 X97.275 Y98.775 E9.00760
G1 X98.275 Y98.775 E9.02821
G1 X98.275 Y97.775 E9.04882
G1 X101.725 Y97.775 E9.11993
G1 X101.725 Y98.700 E9.13899
G1 X101.933 Y99.230 F7800.000
G1 X102.000 Y100.945 F7800.000
G1 F649.922
G1 X102.000 Y102.945 E9.20902
G1 Z3.050 F7800.000
G1 X100.529 Y98.971 F7800.000
G1 F600
G1 X100.529 Y100.029 E9.23755
G1 X99.471 Y100.029 E9.26608
G1 X99.471 Y98.971 E9.29461
G1 X100.454 Y98.971 E9.32111
G1 X101.164 Y99.336 F7800.000
G1 F600
G1 X102.164 Y99.336 E9.34809
G1 X102.164 Y100.664 E9.38393
G1 X98.836 Y100.664 E9.47373
G1 X98.836 Y98.336 E9.53655
G1 X101.164 Y98.336 E9.59937
G1 X101.164 Y99.261 E9.62433
G1 X101.725 Y98.775 F7800.000
G1 F600
G1 X102.725 Y98.775 E9.64494
G1 X102.725 Y103.225 E9.73665
G1 X101.275 Y103.225 E9.76654
G1 X101.275 Y101.225 E9.80776
G1 X99.725 Y101.225 E9.83971
G1 X99.725 Y102.225 E9.86032
G1 X99.275 Y102.225 E9.86959
G1 X99.275 Y101.225 E9.89020
G1 X98.275 Y101.225 E9.91081
G1 X98.275 Y100.225 E9.93142
G1 X97.275 Y100.225 E9.95203
G1 X97.275 Y98.775 E9.98192
G1 X98.275 Y98.775 E10.00253
G1 X98.275 Y97.775 E10.02314
G1 X101.725 Y97.775 E10.09424
G1 X101.725 Y98.700 E10.11331
G1 X101.933 Y99.230 F7800.000
G1 X102.000 Y100.945 F7800.000
G1 F649.922
G1 X102.000 Y102.945 E10.18334
G1 Z3.350 F7800.000
G1 X101.529 Y98.971 F7800.000
G1 F600
G1 X101.529 Y101.029 E10.23884
G1 X98.471 Y101.029 E10.32132
G1 X98.471 Y98.971 E10.37683
G1 X101.454 Y98.971 E10.45729
G1 X102.164 Y98.336 F7800.000
G1 F600
G1 X102.164 Y101.664 E10.54708
G1 X97.836 Y101.664 E10.66386
G1 X97.836 Y98.336 E10.75366
G1 X102.089 Y98.336 E10.86841
G1 X100.725 Y97.775 F7800.000
G1 F1800
G1 X102.250 Y97.775 E10.89984
M106 S255

G1 F3600
G1 X102.725 Y97.775 E10.91303
G1 X102.725 Y98.250 E10.92623
M106 S255

G1 F1800
G1 X102.725 Y103.225 E11.02876
G1 X101.275 Y103.225 E11.05865
G1 X101.275 Y102.225 E11.07926
G1 X100.750 Y102.225 E11.09008
M106 S255

G1 F3600
G1 X100.250 Y102.225 E11.10397
M106 S255

G1 F1800
G1 X99.725 Y102.225 E11.11479
G1 X99.725 Y102.750 E11.12561
M106 S255

G1 F3600
G1 X99.725 Y103.225 E11.13880
G1 X99.275 Y103.225 E11.15130
G1 X99.275 Y102.750 E11.16450
M106 S255

G1 F1800
G1 X99.275 Y102.225 E11.17532
G1 X98.750 Y102.225 E11.18614
M106 S255

G1 F3600
G1 X97.275 Y102.225 E11.22711
G1 X97.275 Y100.750 E11.26808
M106 S255

G1 F1800
G1 X97.275 Y98.250 E11.31961
M106 S255

G1 F3600
G1 X97.275 Y97.775 E11.33280
G1 X97.750 Y97.775 E11.34600
M106 S255

G1 F1800
G1 X98.275 Y97.775 E11.35682
G1 X98.275 Y97.250 E11.36764
M106 S255

G1 F3600
G1 X98.275 Y96.775 E11.38083
G1 X98.725 Y96.775 E11.39333
G1 X98.725 Y97.250 E11.40653
M106 S255

G1 F1800
G1 X98.725 Y97.775 E11.41735
G1 X100.275 Y97.775 E11.44930
G1 X100.275 Y97.250 E11.46012
M106 S255

G1 F3600
G1 X100.275 Y96.775 E11.47331
G1 X100.725 Y96.775 E11.48581
G1 X100.725 Y97.250 E11.49900
M106 S255

G1 F1800
G1 X100.725 Y97.700 E11.50828
G1 X100.535 Y98.238 F7800.000
G1 X99.769 Y99.360 F7800.000
G1 F600
G1 X98.860 Y100.269 E11.54992
G1 X98.860 Y100.640 E11.56193
G1 X99.567 Y100.640 E11.58484
G1 X100.848 Y99.360 E11.64347
G1 X101.140 Y99.360 E11.65294
G1 X101.140 Y100.146 E11.67839
G1 X100.646 Y100.640 E11.70103
G1 Z3.650 F7800.000
G1 X101.529 Y98.971 F7800.000
G1 F600
G1 X101.529 Y101.029 E11.75653
G1 X98.471 Y101.029 E11.83901
G1 X98.471 Y98.971 E11.89452
G1 X101.454 Y98.971 E11.97498
G1 X102.164 Y98.336 F7800.000
G1 F600
G1 X102.164 Y101.664 E12.06477
G1 X97.836 Y101.664 E12.18155
G1 X97.836 Y98.336 E12.27135
G1 X102.089 Y98.336 E12.38610
G1 X100.725 Y97.775 F7800.000
G1 F900
G1 X102.725 Y97.775 E12.42732
G1 X102.725 Y103.225 E12.53965
G1 X101.275 Y103.225 E12.56953
G1 X101.275 Y102.225 E12.59014
G1 X99.725 Y102.225 E12.62209
G1 X99.725 Y103.225 E12.64270
G1 X99.275 Y103.225 E12.65197
G1 X99.275 Y102.225 E12.67258
G1 X97.275 Y102.225 E12.71380
G1 X97.275 Y97.775 E12.80552
G1 X98.275 Y97.775 E12.82613
G1 X98.275 Y96.775 E12.84674
G1 X98.725 Y96.775 E12.85601
G1 X98.725 Y97.775 E12.87663
G1 X100.275 Y97.775 E12.90857
G1 X100.275 Y96.775 E12.92918
G1 X100.725 Y96.775 E12.93846
G1 X100.725 Y97.700 E12.95752
G1 X100.795 Y98.270 F7800.000
G1 X101.140 Y99.854 F7800.000
G1 F757.968
G1 X100.646 Y99.360 E12.98016
G1 X99.567 Y99.360 E13.01508
G1 X100.848 Y100.640 E13.07371
G1 X99.769 Y100.640 E13.10863
G1 X98.860 Y99.731 E13.15027
G1 Z3.950 F7800.000
G1 X101.529 Y98.971 F7800.000
G1 F600
G1 X101.529 Y101.029 E13.20577
G1 X98.471 Y101.029 E13.28825
G1 X98.471 Y98.971 E13.34376
G1 X101.454 Y98.971 E13.42422
G1 X102.164 Y98.336 F7800.000
G1 F600
G1 X102.164 Y101.664 E13.51402
G1 X97.836 Y101.664 E13.63079
G1 X97.836 Y98.336 E13.72059
G1 X102.089 Y98.336 E13.83534
G1 X100.725 Y97.775 F7800.000
G1 F900
G1 X102.725 Y97.775 E13.87656
G1 X102.725 Y103.225 E13.98889
G1 X101.275 Y103.225 E14.01877
G1 X101.275 Y102.225 E14.03938
G1 X99.725 Y102.225 E14.07133
G1 X99.725 Y103.225 E14.09194
G1 X99.275 Y103.225 E14.10121
G1 X99.275 Y102.225 E14.12182
G1 X97.275 Y102.225 E14.16305
G1 X97.275 Y97.775 E14.25476
G1 X98.275 Y97.775 E14.27537
G1 X98.275 Y96.775 E14.29598
G1 X98.725 Y96.775 E14.30526
G1 X98.725 Y97.775 E14.32587
G1 X100.275 Y97.775 E14.35781
G1 X100.275 Y96.775 E14.37842
G1 X100.725 Y96.775 E14.38770
G1 X100.725 Y97.700 E14.40676
G1 X100.795 Y98.270 F7800.000
G1 X99.769 Y99.360 F7800.000
G1 F757.968
G1 X98.860 Y100.269 E14.44840
G1 X98.860 Y100.640 E14.46042
G1 X99.567 Y100.640 E14.48332
G1 X100.848 Y99.360 E14.54195
G1 X101.140 Y99.360 E14.55142
G1 X101.140 Y100.146 E14.57687
G1 X100.646 Y100.640 E14.59951
G1 Z4.250 F7800.000
G1 X99.529 Y99.971 F7800.000
G1 F600
G1 X101.529 Y99.971 E14.65346
G1 X101.529 Y101.029 E14.68199
G1 X98.471 Y101.029 E14.76447
G1 X98.471 Y98.971 E14.81998
G1 X99.529 Y98.971 E14.84851
G1 X99.529 Y99.896 E14.87346
G1 X100.164 Y99.336 F7800.000
G1 F600
G1 X102.164 Y99.336 E14.92741
G1 X102.164 Y101.664 E14.99023
G1 X97.836 Y101.664 E15.10701
G1 X97.836 Y98.336 E15.19681
G1 X100.164 Y98.336 E15.25963
G1 X100.164 Y99.261 E15.28458
G1 X100.725 Y98.775 F7800.000
G1 F1800
G1 X102.725 Y98.775 E15.32580
G1 X102.725 Y102.225 E15.39691
G1 X101.725 Y102.225 E15.41752
G1 X101.725 Y103.225 E15.43813
G1 X101.275 Y103.225 E15.44740
G1 X101.275 Y102.225 E15.46801
G1 X99.725 Y102.225 E15.49996
G1 X99.725 Y103.225 E15.52057
G1 X98.750 Y103.225 E15.54067
M106 S255

G1 F3600
G1 X98.275 Y103.225 E15.55386
G1 X98.275 Y102.750 E15.56705
M106 S255

G1 F1800
G1 X98.275 Y102.225 E15.57788
G1 X97.275 Y102.225 E15.59849
G1 X97.275 Y97.775 E15.69020
G1 X100.725 Y97.775 E15.76131
G1 X100.725 Y98.700 E15.78037
G1 X100.933 Y99.230 F7800.000
G1 X99.000 Y99.289 F7800.000
G1 F600
G1 X99.000 Y100.289 E15.79555
G1 F600
G1 X99.036 Y100.464 E15.79880
G1 X99.124 Y100.482 E15.80043
G1 F600
G1 X99.211 Y100.500 E15.80178
G1 X101.211 Y100.500 E15.83213
G1 Z4.550 F7800.000
G1 X99.529 Y99.971 F7800.000
G1 F600
